www/assets/icons/health_and_safety.svg

<svg xmlns="http://www.w3.org/2000/svg" width="24" height="24" viewBox="0 0 24 24" fill='currentColor'><path d="M10.5 13H8v-3h2.5V7.5h3V10H16v3h-2.5v2.5h-3zM12 2 4 5v6.09c0 5.05 3.41 9.76 8 10.91 4.59-1.15 8-5.86 8-10.91V5z"/></svg>

<svg width="24" height="24" viewBox="0 0 24 24" xmlns="http://www.w3.org/2000/svg" fill='currentColor'><path d="M10.5 13H8V10H10.5V7.5H13.5V10H16V13H13.5V15.5H10.5V13ZM12 2L4 5V11.09C4 16.14 7.41 20.85 12 22C16.59 20.85 20 16.14 20 11.09V5L12 2Z"/></svg>
